X: 18053
T: Humours Of Ayle House, The
R: jig
M: 6/8
K: Dmajor
|:AG|FDD F2d|cAA BAG|AFD F2d|cAF GAG|
FDD F2d|cAA cde|fge cAG|1 EDD D:|2 EDD D2||
|:A|cBA fed|cAA A2B|cBA fed|cAF G2A|
cBA fed|cAA cde|fge cAG|EDD D2:|

